{
  "type": "map",
  "version": "1.10",
  "tiledversion": "1.10.2",
  "orientation": "orthogonal",
  "renderorder": "right-down",
  "infinite": false,
  "width": 40,
  "height": 30,
  "tilewidth": 16,
  "tileheight": 16,
  "nextlayerid": 12,
  "nextobjectid": 104,
  "properties": [
    {
      "name": "regionId",
      "type": "string",
      "value": "seed-shop"
    },
    {
      "name": "displayName",
      "type": "string",
      "value": "种子店"
    },
    {
      "name": "defaultSpawn",
      "type": "string",
      "value": "entry"
    },
    {
      "name": "startRegion",
      "type": "bool",
      "value": false
    }
  ],
  "tilesets": [
    {
      "firstgid": 5001,
      "name": "shop-interiors",
      "tilewidth": 16,
      "tileheight": 16,
      "tilecount": 256,
      "columns": 16,
      "margin": 0,
      "spacing": 0,
      "image": "../../src/tiled/shop-interiors.runtime.png",
      "imagewidth": 256,
      "imageheight": 256
    }
  ],
  "layers": [
    {
      "id": 1,
      "name": "Ground",
      "type": "tilelayer",
      "x": 0,
      "y": 0,
      "width": 40,
      "height": 30,
      "opacity": 1,
      "visible": true,
      "data": [5001,5001,5001,5001,5001,5001,5001,5001,5001,5001,5001,5001,5001,5001,5001,5001,5001,5001,5001,5001,5001,5001,5001,5001,5001,5001,5001,5001,5001,5001,5001,5001,5001,5001,5001,5001,5001,5001,5001,5001,5001,5001,5001,5001,5001,5001,5001,5001,5001,5001,5001,5001,5001,5001,5001,5001,5001,5001,5001,5001,5001,5001,5001,5001,5001,5001,5001,5001,5001,5001,5001,5001,5001,5001,5001,5001,5001,5001,5001,5001,5001,5001,5001,5001,5001,5001,5001,5001,5001,5001,5001,5001,5001,5001,5001,5001,5001,5001,5001,5001,5001,5001,5001,5001,5001,5001,5001,5001,5001,5001,5001,5001,5001,5001,5001,5001,5001,5001,5001,5001,5001,5001,5001,5001,5001,5001,5001,5001,5001,5001,5001,5001,5001,5001,5001,5001,5001,5001,5001,5001,5001,5001,5001,5001,5001,5001,5001,5001,5001,5001,5001,5001,5001,5001,5001,5001,5001,5001,5001,5001,5001,5001,5001,5001,5001,5001,5001,5001,5001,5001,5001,5001,5001,5001,5001,5001,5001,5001,5001,5001,5001,5001,5001,5001,5001,5001,5001,5001,5001,5001,5001,5001,5001,5001,5001,5001,5001,5001,5001,5001,5001,5001,5001,5001,5001,5001,5001,5001,5001,5001,5001,5001,5001,5001,5001,5001,5001,5001,5001,5001,5001,5001,5001,5001,5001,5001,5001,5001,5001,5001,5001,5001,5001,5001,5001,5001,5001,5001,5001,5001,5001,5001,5001,5001,5001,5001,5001,5001,5001,5001,5001,5001,5001,5001,5001,5001,5001,5001,5001,5001,5001,5001,5001,5001,5001,5001,5001,5001,5001,5001,5001,5001,5001,5001,5001,5001,5001,5001,5001,5001,5001,5001,5001,5001,5001,5001,5001,5001,5001,5001,5001,5001,5001,5001,5001,5001,5001,5001,5001,5001,5001,5001,5001,5001,5001,5001,5001,5001,5001,5001,5001,5001,5001,5001,5001,5001,5001,5001,5001,5001,5001,5001,5001,5001,5001,5001,5001,5001,5001,5001,5001,5001,5001,5001,5001,5001,5001,5001,5001,5001,5001,5001,5001,5001,5001,5001,5001,5001,5001,5001,5001,5001,5001,5001,5001,5001,5001,5001,5001,5001,5001,5001,5001,5001,5001,5001,5001,5001,5001,5001,5001,5001,5001,5001,5001,5001,5001,5001,5001,5001,5001,5001,5001,5001,5001,5001,5001,5001,5001,5001,5001,5001,5001,5001,5001,5001,5001,5001,5001,5001,5001,5001,5001,5001,5001,5001,5001,5001,5001,5001,5001,5001,5001,5001,5001,5001,5001,5001,5001,5001,5001,5001,5001,5001,5001,5001,5001,5001,5001,5001,5001,5001,5001,5001,5001,5001,5001,5001,5001,5001,5001,5001,5001,5001,5001,5001,5001,5001,5001,5001,5001,5001,5001,5001,5001,5001,5001,5001,5001,5001,5001,5001,5001,5001,5001,5001,5001,5001,5001,5001,5001,5001,5001,5001,5001,5001,5001,5001,5001,5001,5001,5001,5001,5001,5001,5001,5001,5001,5001,5001,5001,5001,5001,5001,5001,5001,5001,5001,5001,5001,5001,5001,5001,5001,5001,5001,5001,5001,5001,5001,5001,5001,5001,5001,5001,5001,5001,5001,5001,5001,5001,5001,5001,5001,5001,5001,5001,5001,5001,5001,5001,5001,5001,5001,5001,5001,5001,5001,5001,5001,5001,5001,5001,5001,5001,5001,5001,5001,5001,5001,5001,5001,5001,5001,5001,5001,5001,5001,5001,5001,5001,5001,5001,5001,5001,5001,5001,5001,5001,5001,5001,5001,5001,5001,5001,5001,5001,5001,5001,5001,5001,5001,5001,5001,5001,5001,5001,5001,5001,5001,5001,5001,5001,5001,5001,5001,5001,5001,5001,5001,5001,5001,5001,5001,5001,5001,5001,5001,5001,5001,5001,5001,5001,5001,5001,5001,5001,5001,5001,5001,5001,5001,5001,5001,5001,5001,5001,5001,5001,5001,5001,5001,5001,5001,5001,5001,5001,5001,5001,5001,5001,5001,5001,5001,5001,5001,5001,5001,5001,5001,5001,5001,5001,5001,5001,5001,5001,5001,5001,5001,5001,5001,5001,5001,5001,5001,5001,5001,5001,5001,5001,5001,5001,5001,5001,5001,5001,5001,5001,5001,5001,5001,5001,5001,5001,5001,5001,5001,5001,5001,5001,5001,5001,5001,5001,5001,5001,5001,5001,5001,5001,5001,5001,5001,5001,5001,5001,5001,5001,5001,5001,5001,5001,5001,5001,5001,5001,5001,5001,5001,5001,5001,5001,5001,5001,5001,5001,5001,5001,5001,5001,5001,5002,5003,5004,5002,5003,5004,5002,5003,5004,5002,5003,5004,5002,5003,5004,5002,5001,5001,5001,5001,5001,5001,5001,5001,5001,5001,5001,5001,5001,5001,5001,5001,5001,5001,5001,5001,5001,5001,5001,5001,5004,5002,5003,5004,5002,5003,5004,5002,5003,5004,5002,5003,5004,5002,5003,5004,5001,5001,5001,5001,5001,5001,5001,5001,5001,5001,5001,5001,5001,5001,5001,5001,5001,5001,5001,5001,5001,5001,5001,5001,5003,5004,5002,5003,5004,5002,5003,5004,5002,5003,5004,5002,5003,5004,5002,5003,5001,5001,5001,5001,5001,5001,5001,5001,5001,5001,5001,5001,5001,5001,5001,5001,5001,5001,5001,5001,5001,5001,5001,5001,5002,5003,5004,5002,5003,5004,5002,5003,5004,5002,5003,5004,5002,5003,5004,5002,5001,5001,5001,5001,5001,5001,5001,5001,5001,5001,5001,5001,5001,5001,5001,5001,5001,5001,5001,5001,5001,5001,5001,5001,5004,5002,5003,5004,5002,5003,5004,5002,5003,5004,5002,5003,5004,5002,5003,5004,5001,5001,5001,5001,5001,5001,5001,5001,5001,5001,5001,5001,5001,5001,5001,5001,5001,5001,5001,5001,5001,5001,5001,5001,5003,5004,5002,5003,5004,5002,5003,5004,5002,5003,5004,5002,5003,5004,5002,5003,5001,5001,5001,5001,5001,5001,5001,5001,5001,5001,5001,5001,5001,5001,5001,5001,5001,5001,5001,5001,5001,5001,5001,5001,5002,5003,5004,5002,5003,5004,5002,5003,5004,5002,5003,5004,5002,5003,5004,5002,5001,5001,5001,5001,5001,5001,5001,5001,5001,5001,5001,5001,5001,5001,5001,5001,5001,5001,5001,5001,5001,5001,5001,5001,5004,5002,5003,5004,5002,5003,5004,5002,5003,5004,5002,5003,5004,5002,5003,5004,5001,5001,5001,5001,5001,5001,5001,5001,5001,5001,5001,5001,5001,5001,5001,5001,5001,5001,5001,5001,5001,5001,5001,5001,5001,5001,5001,5001,5001,5001,5001,5009,5009,5001,5001,5001,5001,5001,5001,5001,5001,5001,5001,5001,5001,5001,5001,5001,5001,5001,5001,5001,5001,5001,5001,5001,5001,5001,5001,5001,5001,5001,5001,5001,5001,5001,5001,5001,5001,5001,5001,5001,5001,5001,5001,5001,5001,5001,5001,5001,5001,5001,5001,5001,5001,5001,5001,5001,5001,5001,5001,5001,5001,5001,5001,5001,5001,5001,5001,5001,5001,5001,5001,5001,5001,5001,5001,5001,5001,5001,5001,5001,5001,5001,5001,5001,5001,5001,5001,5001,5001,5001,5001,5001,5001,5001,5001,5001,5001,5001,5001,5001,5001,5001,5001,5001,5001,5001,5001,5001,5001,5001,5001,5001,5001,5001,5001,5001,5001,5001,5001,5001,5001,5001,5001,5001,5001,5001,5001,5001,5001,5001,5001,5001,5001,5001,5001,5001,5001,5001,5001,5001]
    },
    {
      "id": 2,
      "name": "GroundDetail",
      "type": "tilelayer",
      "x": 0,
      "y": 0,
      "width": 40,
      "height": 30,
      "opacity": 1,
      "visible": true,
      "data": [0,0,0,0,0,0,0,0,0,0,0,0,0,0,0,0,0,0,0,0,0,0,0,0,0,0,0,0,0,0,0,0,0,0,0,0,0,0,0,0,0,0,0,0,0,0,0,0,0,0,0,0,0,0,0,0,0,0,0,0,0,0,0,0,0,0,0,0,0,0,0,0,0,0,0,0,0,0,0,0,0,0,0,0,0,0,0,0,0,0,0,0,0,0,0,0,0,0,0,0,0,0,0,0,0,0,0,0,0,0,0,0,0,0,0,0,0,0,0,0,0,0,0,0,0,0,0,0,0,0,0,0,0,0,0,0,0,0,0,0,0,0,0,0,0,0,0,0,0,0,0,0,0,0,0,0,0,0,0,0,0,0,0,0,0,0,0,0,0,0,0,0,0,0,0,0,0,0,0,0,0,0,0,0,0,0,0,0,0,0,0,0,0,0,0,0,0,0,0,0,0,0,0,0,0,0,0,0,0,0,0,0,0,0,0,0,0,0,0,0,0,0,0,0,0,0,0,0,0,0,0,0,0,0,0,0,0,0,0,0,0,0,0,0,0,0,0,0,0,0,0,0,0,0,0,0,0,0,0,0,0,0,0,0,0,0,0,0,0,0,0,0,0,0,0,0,0,0,0,0,0,0,0,0,0,0,0,0,0,0,0,0,0,0,0,0,0,0,0,0,0,0,0,0,0,0,0,0,0,0,0,0,0,0,0,0,0,0,0,0,0,0,0,0,0,0,0,0,0,0,0,0,0,0,0,0,0,0,0,0,0,0,0,0,0,0,0,0,0,0,0,0,0,0,0,0,0,0,0,0,0,0,0,0,0,0,0,0,0,0,0,0,0,0,0,0,0,0,0,0,0,0,0,0,0,0,0,0,0,0,0,0,0,0,0,0,0,0,0,0,0,0,0,0,0,0,0,0,0,0,0,0,0,0,0,0,0,0,0,0,0,0,0,0,0,0,0,0,0,0,0,0,0,0,0,0,0,0,0,0,0,0,0,0,0,0,0,0,0,0,0,0,0,0,0,0,0,0,0,0,0,0,0,0,0,0,0,0,0,0,0,0,0,0,0,0,0,0,0,0,0,0,0,0,0,0,0,0,0,0,0,0,0,0,0,0,0,0,0,0,0,0,0,0,0,0,0,0,0,0,0,0,0,0,0,0,0,0,0,0,0,0,0,0,0,0,0,0,0,0,0,0,0,0,0,0,0,0,0,0,0,0,0,0,0,0,0,0,0,0,0,0,0,0,0,0,0,0,0,0,0,0,0,0,0,0,0,0,0,0,0,0,0,0,0,0,0,0,0,0,0,0,0,0,0,0,0,0,0,0,0,0,0,0,0,0,0,0,0,0,0,0,0,0,0,0,0,0,0,0,0,0,0,0,0,0,0,0,0,0,0,0,0,0,0,0,0,0,0,0,0,0,0,0,0,0,0,0,0,0,0,0,0,0,0,0,0,0,0,0,0,0,0,0,0,0,0,0,0,0,0,0,0,0,0,0,0,0,0,0,0,0,0,0,0,0,0,0,0,0,0,0,0,0,0,0,0,0,0,0,0,0,0,0,0,0,0,0,0,0,0,0,0,0,0,0,0,0,0,0,0,0,0,0,0,0,0,0,0,0,0,0,0,0,0,0,0,0,0,0,0,0,0,0,0,0,0,0,0,0,0,0,0,0,0,0,0,0,0,0,0,0,0,0,0,0,0,0,0,0,0,0,0,0,0,0,0,0,0,0,0,0,0,0,0,0,0,0,0,0,0,0,0,0,0,0,0,0,0,0,0,0,0,0,0,0,0,0,0,0,0,0,0,0,0,0,0,0,0,0,0,0,0,0,0,0,0,0,0,0,0,0,0,0,0,0,0,0,0,0,0,0,0,0,0,0,0,0,0,0,0,0,0,0,0,0,0,0,0,0,0,0,0,0,0,0,0,0,0,0,0,0,0,0,0,0,0,0,0,0,0,0,0,0,0,0,0,0,0,0,0,0,0,0,0,0,0,0,0,0,0,0,0,0,0,0,0,0,0,0,0,0,0,0,0,0,0,0,0,0,0,0,0,0,0,0,0,0,0,0,0,0,0,0,0,0,0,0,0,0,0,0,0,0,0,0,0,0,0,0,0,0,0,0,0,0,0,0,0,0,0,0,0,0,0,0,0,0,0,0,0,0,0,0,0,0,0,0,0,0,0,0,0,0,0,0,0,0,0,0,0,0,0,0,0,0,0,0,0,0,0,0,0,0,0,0,0,0,0,0,0,0,0,0,0,0,0,0,0,0,0,0,0,0,0,0,0,0,5141,5142,5142,5143,0,0,0,0,0,0,0,0,0,0,0,0,0,0,0,0,0,0,0,0,0,0,0,0,0,0,0,0,0,0,0,0,0,0,0,0,0,0,0,0,0,0,0,0,0,0,0,0,0,0,0,0,0,0,0,0,0,0,0,0,0,0,0,0,0,0,0,0,0,0,0,0,0,0,0,0,0,0,0,0,0,0,0,0,0,0,0,0,0,0,0,0,0,0,0,0,0,0,0,0,0,0,0,0,0,0,0,0,0,0,0,0,0,0,0,0,0,0,0,0,0,0,0,0,0,0,0,0,0,0,0,0,0,0,0,0,0,0,0,0,0,0,0,0,0,0,0,0,0,0,0,0,0,0,0,0,0,0,0,0,0,0,0,0,0,0,0,0,0,0,0,0,0,0,0,0,0,0]
    },
    {
      "id": 3,
      "name": "Water",
      "type": "tilelayer",
      "x": 0,
      "y": 0,
      "width": 40,
      "height": 30,
      "opacity": 1,
      "visible": true,
      "data": [0,0,0,0,0,0,0,0,0,0,0,0,0,0,0,0,0,0,0,0,0,0,0,0,0,0,0,0,0,0,0,0,0,0,0,0,0,0,0,0,0,0,0,0,0,0,0,0,0,0,0,0,0,0,0,0,0,0,0,0,0,0,0,0,0,0,0,0,0,0,0,0,0,0,0,0,0,0,0,0,0,0,0,0,0,0,0,0,0,0,0,0,0,0,0,0,0,0,0,0,0,0,0,0,0,0,0,0,0,0,0,0,0,0,0,0,0,0,0,0,0,0,0,0,0,0,0,0,0,0,0,0,0,0,0,0,0,0,0,0,0,0,0,0,0,0,0,0,0,0,0,0,0,0,0,0,0,0,0,0,0,0,0,0,0,0,0,0,0,0,0,0,0,0,0,0,0,0,0,0,0,0,0,0,0,0,0,0,0,0,0,0,0,0,0,0,0,0,0,0,0,0,0,0,0,0,0,0,0,0,0,0,0,0,0,0,0,0,0,0,0,0,0,0,0,0,0,0,0,0,0,0,0,0,0,0,0,0,0,0,0,0,0,0,0,0,0,0,0,0,0,0,0,0,0,0,0,0,0,0,0,0,0,0,0,0,0,0,0,0,0,0,0,0,0,0,0,0,0,0,0,0,0,0,0,0,0,0,0,0,0,0,0,0,0,0,0,0,0,0,0,0,0,0,0,0,0,0,0,0,0,0,0,0,0,0,0,0,0,0,0,0,0,0,0,0,0,0,0,0,0,0,0,0,0,0,0,0,0,0,0,0,0,0,0,0,0,0,0,0,0,0,0,0,0,0,0,0,0,0,0,0,0,0,0,0,0,0,0,0,0,0,0,0,0,0,0,0,0,0,0,0,0,0,0,0,0,0,0,0,0,0,0,0,0,0,0,0,0,0,0,0,0,0,0,0,0,0,0,0,0,0,0,0,0,0,0,0,0,0,0,0,0,0,0,0,0,0,0,0,0,0,0,0,0,0,0,0,0,0,0,0,0,0,0,0,0,0,0,0,0,0,0,0,0,0,0,0,0,0,0,0,0,0,0,0,0,0,0,0,0,0,0,0,0,0,0,0,0,0,0,0,0,0,0,0,0,0,0,0,0,0,0,0,0,0,0,0,0,0,0,0,0,0,0,0,0,0,0,0,0,0,0,0,0,0,0,0,0,0,0,0,0,0,0,0,0,0,0,0,0,0,0,0,0,0,0,0,0,0,0,0,0,0,0,0,0,0,0,0,0,0,0,0,0,0,0,0,0,0,0,0,0,0,0,0,0,0,0,0,0,0,0,0,0,0,0,0,0,0,0,0,0,0,0,0,0,0,0,0,0,0,0,0,0,0,0,0,0,0,0,0,0,0,0,0,0,0,0,0,0,0,0,0,0,0,0,0,0,0,0,0,0,0,0,0,0,0,0,0,0,0,0,0,0,0,0,0,0,0,0,0,0,0,0,0,0,0,0,0,0,0,0,0,0,0,0,0,0,0,0,0,0,0,0,0,0,0,0,0,0,0,0,0,0,0,0,0,0,0,0,0,0,0,0,0,0,0,0,0,0,0,0,0,0,0,0,0,0,0,0,0,0,0,0,0,0,0,0,0,0,0,0,0,0,0,0,0,0,0,0,0,0,0,0,0,0,0,0,0,0,0,0,0,0,0,0,0,0,0,0,0,0,0,0,0,0,0,0,0,0,0,0,0,0,0,0,0,0,0,0,0,0,0,0,0,0,0,0,0,0,0,0,0,0,0,0,0,0,0,0,0,0,0,0,0,0,0,0,0,0,0,0,0,0,0,0,0,0,0,0,0,0,0,0,0,0,0,0,0,0,0,0,0,0,0,0,0,0,0,0,0,0,0,0,0,0,0,0,0,0,0,0,0,0,0,0,0,0,0,0,0,0,0,0,0,0,0,0,0,0,0,0,0,0,0,0,0,0,0,0,0,0,0,0,0,0,0,0,0,0,0,0,0,0,0,0,0,0,0,0,0,0,0,0,0,0,0,0,0,0,0,0,0,0,0,0,0,0,0,0,0,0,0,0,0,0,0,0,0,0,0,0,0,0,0,0,0,0,0,0,0,0,0,0,0,0,0,0,0,0,0,0,0,0,0,0,0,0,0,0,0,0,0,0,0,0,0,0,0,0,0,0,0,0,0,0,0,0,0,0,0,0,0,0,0,0,0,0,0,0,0,0,0,0,0,0,0,0,0,0,0,0,0,0,0,0,0,0,0,0,0,0,0,0,0,0,0,0,0,0,0,0,0,0,0,0,0,0,0,0,0,0,0,0,0,0,0,0,0,0,0,0,0,0,0,0,0,0,0,0,0,0,0,0,0,0,0,0,0,0,0,0,0,0,0,0,0,0,0,0,0,0,0,0,0,0,0,0,0,0,0,0,0,0,0,0,0,0,0,0,0,0,0,0,0,0,0,0,0,0,0,0,0,0,0,0,0,0,0,0,0,0,0,0,0,0,0,0,0,0,0,0,0,0,0,0,0,0,0,0,0,0,0,0,0,0,0,0,0,0,0,0,0,0,0,0,0,0,0,0,0,0,0,0,0,0,0,0,0,0,0,0,0,0,0,0,0,0,0,0,0,0,0,0,0,0,0,0,0,0,0,0,0,0,0,0,0,0,0,0,0,0,0,0,0,0,0,0,0,0,0,0,0,0,0,0,0,0,0,0,0,0,0,0,0,0,0,0,0]
    },
    {
      "id": 4,
      "name": "Buildings",
      "type": "tilelayer",
      "x": 0,
      "y": 0,
      "width": 40,
      "height": 30,
      "opacity": 1,
      "visible": true,
      "data": [0,0,0,0,0,0,0,0,0,0,0,0,0,0,0,0,0,0,0,0,0,0,0,0,0,0,0,0,0,0,0,0,0,0,0,0,0,0,0,0,0,0,0,0,0,0,0,0,0,0,0,0,0,0,0,0,0,0,0,0,0,0,0,0,0,0,0,0,0,0,0,0,0,0,0,0,0,0,0,0,0,0,0,0,0,0,0,0,0,0,0,0,0,0,0,0,0,0,0,0,0,0,0,0,0,0,0,0,0,0,0,0,0,0,0,0,0,0,0,0,0,0,0,0,0,0,0,0,0,0,0,0,0,0,0,0,0,0,0,0,0,0,0,0,0,0,0,0,0,0,0,0,0,0,0,0,0,0,0,0,0,0,0,0,0,0,0,0,0,0,0,0,0,0,0,0,0,0,0,0,0,0,0,0,0,0,0,0,0,0,0,0,0,0,0,0,0,0,0,0,0,0,0,0,0,0,0,0,0,0,0,0,0,0,0,0,0,0,0,0,0,0,0,0,0,0,0,0,0,0,0,0,0,0,0,0,0,0,0,0,0,0,0,0,0,0,0,0,0,0,0,0,0,0,0,0,0,0,0,0,0,0,0,0,0,0,0,0,0,0,0,0,0,0,0,0,0,0,0,0,0,0,0,0,0,0,0,0,0,0,0,0,0,0,0,0,0,0,0,0,0,0,0,0,0,0,0,0,0,0,0,0,0,0,0,0,0,0,0,0,0,0,0,0,0,0,0,0,0,0,0,0,0,0,0,0,0,0,0,0,0,0,0,0,0,0,0,0,0,0,0,0,0,0,0,0,0,0,0,0,0,0,0,0,0,0,0,0,0,0,0,0,0,0,0,0,0,0,0,0,0,0,0,0,0,0,0,0,0,0,0,0,0,0,0,0,0,0,0,0,0,0,0,0,0,0,0,0,0,0,0,0,0,0,0,0,0,0,0,0,0,0,0,0,0,0,0,0,0,0,0,0,0,0,0,0,0,0,0,0,0,0,0,0,0,0,0,0,0,0,0,0,0,0,0,0,0,0,0,0,0,0,0,0,0,0,0,0,0,0,0,0,0,0,0,0,0,0,0,0,0,0,0,0,0,0,0,0,0,0,0,0,0,0,0,0,0,0,0,0,0,0,0,0,0,0,0,0,0,0,0,0,0,0,0,0,0,0,0,0,0,0,0,0,0,0,0,0,0,0,0,0,0,0,0,0,0,0,0,0,0,0,0,0,0,0,0,0,0,0,0,0,0,0,0,0,0,0,0,0,0,0,0,0,0,0,0,0,0,0,0,0,0,0,0,0,0,0,0,0,0,0,0,0,0,0,0,0,0,0,0,0,0,0,0,0,0,0,0,0,0,0,0,0,0,0,0,0,0,0,0,0,0,0,0,0,0,0,0,0,0,0,0,0,0,0,0,0,0,0,0,0,0,0,0,0,0,0,0,0,0,0,0,0,0,0,0,0,0,0,0,5007,5006,5006,5006,5006,5006,5006,5033,5034,5006,5006,5137,5006,5006,5006,5006,5006,5007,0,0,0,0,0,0,0,0,0,0,0,0,0,0,0,0,0,0,0,0,0,0,5007,5005,5129,5130,5135,5136,5005,5049,5050,5005,5005,5153,5005,5005,5129,5130,5005,5007,0,0,0,0,0,0,0,0,0,0,0,0,0,0,0,0,0,0,0,0,0,0,5007,0,5145,5146,0,0,0,0,0,0,0,0,0,0,5145,5146,0,5007,0,0,0,0,0,0,0,0,0,0,0,0,0,0,0,0,0,0,0,0,0,0,5007,0,0,0,0,0,0,0,0,0,0,0,0,0,0,0,0,5007,0,0,0,0,0,0,0,0,0,0,0,0,0,0,0,0,0,0,0,0,0,0,5007,0,0,0,0,0,5138,5139,5139,5139,5139,5140,0,0,0,0,0,5007,0,0,0,0,0,0,0,0,0,0,0,0,0,0,0,0,0,0,0,0,0,0,5007,0,0,0,0,0,0,0,0,0,0,0,0,0,0,0,0,5007,0,0,0,0,0,0,0,0,0,0,0,0,0,0,0,0,0,0,0,0,0,0,5007,0,0,0,0,0,0,0,0,0,0,0,0,0,5133,5134,0,5007,0,0,0,0,0,0,0,0,0,0,0,0,0,0,0,0,0,0,0,0,0,0,5007,0,5131,5132,0,0,0,0,0,0,0,0,0,0,5149,5150,0,5007,0,0,0,0,0,0,0,0,0,0,0,0,0,0,0,0,0,0,0,0,0,0,5007,5041,0,0,0,0,0,0,0,0,0,0,0,0,0,0,0,5007,0,0,0,0,0,0,0,0,0,0,0,0,0,0,0,0,0,0,0,0,0,0,5007,5057,0,0,0,0,0,0,0,0,0,0,0,0,0,0,0,5007,0,0,0,0,0,0,0,0,0,0,0,0,0,0,0,0,0,0,0,0,0,0,5007,5008,5008,5008,5008,5008,5008,5008,0,0,5008,5008,5008,5008,5008,5008,5008,5007,0,0,0,0,0,0,0,0,0,0,0,0,0,0,0,0,0,0,0,0,0,0,0,0,0,0,0,0,0,0,0,0,0,0,0,0,0,0,0,0,0,0,0,0,0,0,0,0,0,0,0,0,0,0,0,0,0,0,0,0,0,0,0,0,0,0,0,0,0,0,0,0,0,0,0,0,0,0,0,0,0,0,0,0,0,0,0,0,0,0,0,0,0,0,0,0,0,0,0,0,0,0,0,0,0,0,0,0,0,0,0,0,0,0,0,0,0,0,0,0,0,0,0,0,0,0,0,0,0,0,0]
    },
    {
      "id": 5,
      "name": "AbovePlayer",
      "type": "tilelayer",
      "x": 0,
      "y": 0,
      "width": 40,
      "height": 30,
      "opacity": 1,
      "visible": true,
      "data": [0,0,0,0,0,0,0,0,0,0,0,0,0,0,0,0,0,0,0,0,0,0,0,0,0,0,0,0,0,0,0,0,0,0,0,0,0,0,0,0,0,0,0,0,0,0,0,0,0,0,0,0,0,0,0,0,0,0,0,0,0,0,0,0,0,0,0,0,0,0,0,0,0,0,0,0,0,0,0,0,0,0,0,0,0,0,0,0,0,0,0,0,0,0,0,0,0,0,0,0,0,0,0,0,0,0,0,0,0,0,0,0,0,0,0,0,0,0,0,0,0,0,0,0,0,0,0,0,0,0,0,0,0,0,0,0,0,0,0,0,0,0,0,0,0,0,0,0,0,0,0,0,0,0,0,0,0,0,0,0,0,0,0,0,0,0,0,0,0,0,0,0,0,0,0,0,0,0,0,0,0,0,0,0,0,0,0,0,0,0,0,0,0,0,0,0,0,0,0,0,0,0,0,0,0,0,0,0,0,0,0,0,0,0,0,0,0,0,0,0,0,0,0,0,0,0,0,0,0,0,0,0,0,0,0,0,0,0,0,0,0,0,0,0,0,0,0,0,0,0,0,0,0,0,0,0,0,0,0,0,0,0,0,0,0,0,0,0,0,0,0,0,0,0,0,0,0,0,0,0,0,0,0,0,0,0,0,0,0,0,0,0,0,0,0,0,0,0,0,0,0,0,0,0,0,0,0,0,0,0,0,0,0,0,0,0,0,0,0,0,0,0,0,0,0,0,0,0,0,0,0,0,0,0,0,0,0,0,0,0,0,0,0,0,0,0,0,0,0,0,0,0,0,0,0,0,0,0,0,0,0,0,0,0,0,0,0,0,0,0,0,0,0,0,0,0,0,0,0,0,0,0,0,0,0,0,0,0,0,0,0,0,0,0,0,0,0,0,0,0,0,0,0,0,0,0,0,0,0,0,0,0,0,0,0,0,0,0,0,0,0,0,0,0,0,0,0,0,0,0,0,0,0,0,0,0,0,0,0,0,0,0,0,0,0,0,0,0,0,0,0,0,0,0,0,0,0,0,0,0,0,0,0,0,0,0,0,0,0,0,0,0,0,0,0,0,0,0,0,0,0,0,0,0,0,0,0,0,0,0,0,0,0,0,0,0,0,0,0,0,0,0,0,0,0,0,0,0,0,0,0,0,0,0,0,0,0,0,0,0,0,0,0,0,0,0,0,0,0,0,0,0,0,0,0,0,0,0,0,0,0,0,0,0,0,0,0,0,0,0,0,0,0,0,0,0,0,0,0,0,0,0,0,0,0,0,0,0,0,0,0,0,0,0,0,0,0,0,0,0,0,0,0,0,0,0,0,0,0,0,0,0,0,0,0,0,0,0,0,0,0,0,0,0,0,0,0,0,0,0,0,0,0,0,0,0,0,0,0,0,0,0,0,0,0,0,0,0,0,0,0,0,0,0,0,0,0,0,0,0,0,0,0,0,0,0,0,0,0,0,0,0,0,0,0,0,0,0,0,0,0,0,0,0,0,0,0,0,0,0,0,0,0,0,0,0,0,0,0,0,0,0,0,0,0,0,0,0,0,0,0,0,0,0,0,0,0,0,0,0,0,0,0,0,0,0,0,0,0,0,0,0,0,0,0,0,0,0,0,0,0,0,0,0,0,0,0,0,0,0,0,0,0,0,0,0,0,0,0,0,0,0,0,0,0,0,0,0,0,0,0,0,0,0,0,0,0,0,0,0,0,0,0,0,0,0,0,0,0,0,0,0,0,0,0,0,0,0,0,0,0,0,0,0,0,0,0,0,0,0,0,0,0,0,0,0,0,0,0,0,0,0,0,0,0,0,0,0,0,0,0,0,0,0,0,0,0,0,0,0,0,0,0,0,0,0,0,0,0,0,0,0,0,0,0,0,0,0,0,0,0,0,0,0,0,0,0,0,0,0,0,0,0,0,0,0,0,0,0,0,0,0,0,0,0,0,0,0,0,0,0,0,0,0,0,0,0,0,0,0,0,0,0,0,0,0,0,0,0,0,0,0,0,0,0,0,0,0,0,0,0,0,0,0,0,0,0,0,0,0,0,0,0,0,0,0,0,0,0,0,0,0,0,0,0,0,0,0,0,0,0,0,0,0,0,0,0,0,0,0,0,0,0,0,0,0,0,0,0,0,0,0,0,0,0,0,0,0,0,0,0,0,0,0,0,0,0,0,0,0,0,0,0,0,0,0,0,0,0,0,0,0,0,0,0,0,0,0,0,0,0,0,0,0,0,0,0,0,0,0,0,0,0,0,0,0,0,0,0,0,0,0,0,0,0,0,0,0,0,0,0,0,0,0,0,0,0,0,0,0,0,0,0,0,0,0,0,0,0,0,0,0,0,0,0,0,0,0,0,0,0,0,0,0,0,0,0,0,0,0,0,0,0,0,0,0,0,0,0,0,0,0,0,0,0,0,0,0,0,0,0,0,0,0,0,0,0,0,0,0,0,0,0,0,0,0,0,0,0,0,0,0,0,0,0,0,0,0,0,0,0,0,0,0,0,0,0,0,0,0,0,0,0,0,0,0,0,0,0,0,0,0,0,0,0,0,0,0,0,0,0,0,0,0,0,0,0,0,0,0,0,0,0,0,0,0,0,0,0,0,0,0,0,0,0,0,0,0,0,0,0,0,0,0,0,0,0,0,0,0,0,0,0,0,0,0,0,0,0,0,0,0,0,0,0,0,0,0,0,0]
    },
    {
      "id": 6,
      "name": "Collision",
      "type": "tilelayer",
      "x": 0,
      "y": 0,
      "width": 40,
      "height": 30,
      "opacity": 1,
      "visible": false,
      "data": [5007,5007,5007,5007,5007,5007,5007,5007,5007,5007,5007,5007,5007,5007,5007,5007,5007,5007,5007,5007,5007,5007,5007,5007,5007,5007,5007,5007,5007,5007,5007,5007,5007,5007,5007,5007,5007,5007,5007,5007,5007,5007,5007,5007,5007,5007,5007,5007,5007,5007,5007,5007,5007,5007,5007,5007,5007,5007,5007,5007,5007,5007,5007,5007,5007,5007,5007,5007,5007,5007,5007,5007,5007,5007,5007,5007,5007,5007,5007,5007,5007,5007,5007,5007,5007,5007,5007,5007,5007,5007,5007,5007,5007,5007,5007,5007,5007,5007,5007,5007,5007,5007,5007,5007,5007,5007,5007,5007,5007,5007,5007,5007,5007,5007,5007,5007,5007,5007,5007,5007,5007,5007,5007,5007,5007,5007,5007,5007,5007,5007,5007,5007,5007,5007,5007,5007,5007,5007,5007,5007,5007,5007,5007,5007,5007,5007,5007,5007,5007,5007,5007,5007,5007,5007,5007,5007,5007,5007,5007,5007,5007,5007,5007,5007,5007,5007,5007,5007,5007,5007,5007,5007,5007,5007,5007,5007,5007,5007,5007,5007,5007,5007,5007,5007,5007,5007,5007,5007,5007,5007,5007,5007,5007,5007,5007,5007,5007,5007,5007,5007,5007,5007,5007,5007,5007,5007,5007,5007,5007,5007,5007,5007,5007,5007,5007,5007,5007,5007,5007,5007,5007,5007,5007,5007,5007,5007,5007,5007,5007,5007,5007,5007,5007,5007,5007,5007,5007,5007,5007,5007,5007,5007,5007,5007,5007,5007,5007,5007,5007,5007,5007,5007,5007,5007,5007,5007,5007,5007,5007,5007,5007,5007,5007,5007,5007,5007,5007,5007,5007,5007,5007,5007,5007,5007,5007,5007,5007,5007,5007,5007,5007,5007,5007,5007,5007,5007,5007,5007,5007,5007,5007,5007,5007,5007,5007,5007,5007,5007,5007,5007,5007,5007,5007,5007,5007,5007,5007,5007,5007,5007,5007,5007,5007,5007,5007,5007,5007,5007,5007,5007,5007,5007,5007,5007,5007,5007,5007,5007,5007,5007,5007,5007,5007,5007,5007,5007,5007,5007,5007,5007,5007,5007,5007,5007,5007,5007,5007,5007,5007,5007,5007,5007,5007,5007,5007,5007,5007,5007,5007,5007,5007,5007,5007,5007,5007,5007,5007,5007,5007,5007,5007,5007,5007,5007,5007,5007,5007,5007,5007,5007,5007,5007,5007,5007,5007,5007,5007,5007,5007,5007,5007,5007,5007,5007,5007,5007,5007,5007,5007,5007,5007,5007,5007,5007,5007,5007,5007,5007,5007,5007,5007,5007,5007,5007,5007,5007,5007,5007,5007,5007,5007,5007,5007,5007,5007,5007,5007,5007,5007,5007,5007,5007,5007,5007,5007,5007,5007,5007,5007,5007,5007,5007,5007,5007,5007,5007,5007,5007,5007,5007,5007,5007,5007,5007,5007,5007,5007,5007,5007,5007,5007,5007,5007,5007,5007,5007,5007,5007,5007,5007,5007,5007,5007,5007,5007,5007,5007,5007,5007,5007,5007,5007,5007,5007,5007,5007,5007,5007,5007,5007,5007,5007,5007,5007,5007,5007,5007,5007,5007,5007,5007,5007,5007,5007,5007,5007,5007,5007,5007,5007,5007,5007,5007,5007,5007,5007,5007,5007,5007,5007,5007,5007,5007,5007,5007,5007,5007,5007,5007,5007,5007,5007,5007,5007,5007,5007,5007,5007,5007,5007,5007,5007,5007,5007,5007,5007,5007,5007,5007,5007,5007,5007,5007,5007,5007,5007,5007,5007,5007,5007,5007,5007,5007,5007,5007,5007,5007,5007,5007,5007,5007,5007,5007,5007,5007,5007,5007,5007,5007,5007,5007,5007,5007,5007,5007,5007,5007,5007,5007,5007,5007,5007,5007,5007,5007,5007,5007,5007,5007,5007,5007,5007,5007,5007,5007,5007,5007,5007,5007,5007,5007,5007,5007,5007,5007,5007,5007,5007,5007,5007,5007,5007,5007,5007,5007,5007,5007,5007,5007,5007,5007,5007,5007,5007,5007,5007,5007,5007,5007,5007,5007,5007,5007,5007,5007,5007,5007,5007,5007,5007,5007,5007,5007,5007,5007,5007,5007,5007,5007,5007,5007,5007,5007,5007,5007,5007,5007,5007,5007,5007,5007,5007,5007,5007,5007,5007,5007,5007,5007,5007,5007,5007,5007,5007,5007,5007,5007,5007,5007,5007,5007,5007,5007,5007,5007,5007,5007,5007,5007,5007,5007,5007,5007,5007,5007,5007,5007,5007,5007,5007,5007,5007,5007,5007,5007,5007,5007,5007,5007,5007,5007,5007,5007,5007,5007,5007,5007,5007,5007,5007,5007,5007,0,5007,5007,0,0,0,0,0,0,0,0,0,0,5007,5007,0,5007,5007,5007,5007,5007,5007,5007,5007,5007,5007,5007,5007,5007,5007,5007,5007,5007,5007,5007,5007,5007,5007,5007,5007,0,0,0,0,0,0,0,0,0,0,0,0,0,0,0,0,5007,5007,5007,5007,5007,5007,5007,5007,5007,5007,5007,5007,5007,5007,5007,5007,5007,5007,5007,5007,5007,5007,5007,5007,0,0,0,0,0,5007,5007,5007,5007,5007,5007,0,0,0,0,0,5007,5007,5007,5007,5007,5007,5007,5007,5007,5007,5007,5007,5007,5007,5007,5007,5007,5007,5007,5007,5007,5007,5007,5007,0,0,0,0,0,0,0,0,0,0,0,0,0,0,0,0,5007,5007,5007,5007,5007,5007,5007,5007,5007,5007,5007,5007,5007,5007,5007,5007,5007,5007,5007,5007,5007,5007,5007,5007,0,0,0,0,0,0,0,0,0,0,0,0,0,5007,5007,0,5007,5007,5007,5007,5007,5007,5007,5007,5007,5007,5007,5007,5007,5007,5007,5007,5007,5007,5007,5007,5007,5007,5007,5007,0,5007,5007,0,0,0,0,0,0,0,0,0,0,5007,5007,0,5007,5007,5007,5007,5007,5007,5007,5007,5007,5007,5007,5007,5007,5007,5007,5007,5007,5007,5007,5007,5007,5007,5007,5007,0,0,0,0,0,0,0,0,0,0,0,0,0,0,0,0,5007,5007,5007,5007,5007,5007,5007,5007,5007,5007,5007,5007,5007,5007,5007,5007,5007,5007,5007,5007,5007,5007,5007,5007,5007,0,0,0,0,0,0,0,0,0,0,0,0,0,0,0,5007,5007,5007,5007,5007,5007,5007,5007,5007,5007,5007,5007,5007,5007,5007,5007,5007,5007,5007,5007,5007,5007,5007,5007,5007,5007,5007,5007,5007,5007,5007,0,0,5007,5007,5007,5007,5007,5007,5007,5007,5007,5007,5007,5007,5007,5007,5007,5007,5007,5007,5007,5007,5007,5007,5007,5007,5007,5007,5007,5007,5007,5007,5007,5007,5007,5007,5007,5007,5007,5007,5007,5007,5007,5007,5007,5007,5007,5007,5007,5007,5007,5007,5007,5007,5007,5007,5007,5007,5007,5007,5007,5007,5007,5007,5007,5007,5007,5007,5007,5007,5007,5007,5007,5007,5007,5007,5007,5007,5007,5007,5007,5007,5007,5007,5007,5007,5007,5007,5007,5007,5007,5007,5007,5007,5007,5007,5007,5007,5007,5007,5007,5007,5007,5007,5007,5007,5007,5007,5007,5007,5007,5007,5007,5007,5007,5007,5007,5007,5007,5007,5007,5007,5007,5007,5007,5007,5007,5007,5007,5007,5007,5007,5007,5007,5007,5007,5007,5007,5007,5007,5007]
    },
    {
      "id": 7,
      "name": "SpawnPoints",
      "type": "objectgroup",
      "x": 0,
      "y": 0,
      "opacity": 1,
      "visible": true,
      "draworder": "topdown",
      "objects": [
        {
          "id": 50,
          "name": "Entry",
          "type": "spawn",
          "point": true,
          "x": 320,
          "y": 400,
          "width": 0,
          "height": 0,
          "rotation": 0,
          "visible": true,
          "properties": [
            {
              "name": "spawnId",
              "type": "string",
              "value": "entry"
            }
          ]
        },
        {
          "height": 0,
          "id": 100,
          "name": "Huaqiang Home",
          "opacity": 1,
          "point": true,
          "properties": [
            {
              "name": "spawnId",
              "type": "string",
              "value": "npc-huaqiang-home"
            }
          ],
          "rotation": 0,
          "type": "spawn",
          "visible": true,
          "width": 0,
          "x": 256,
          "y": 304
        },
        {
          "height": 0,
          "id": 101,
          "name": "Huaqiang Counter",
          "opacity": 1,
          "point": true,
          "properties": [
            {
              "name": "spawnId",
              "type": "string",
              "value": "npc-huaqiang-counter"
            }
          ],
          "rotation": 0,
          "type": "spawn",
          "visible": true,
          "width": 0,
          "x": 320,
          "y": 312
        },
        {
          "height": 0,
          "id": 102,
          "name": "Huaqiang Shelves",
          "opacity": 1,
          "point": true,
          "properties": [
            {
              "name": "spawnId",
              "type": "string",
              "value": "npc-huaqiang-shelves"
            }
          ],
          "rotation": 0,
          "type": "spawn",
          "visible": true,
          "width": 0,
          "x": 384,
          "y": 312
        },
        {
          "id": 103,
          "name": "Room View",
          "type": "spawn",
          "point": true,
          "x": 320,
          "y": 344,
          "width": 0,
          "height": 0,
          "rotation": 0,
          "visible": true,
          "properties": [
            {
              "name": "spawnId",
              "type": "string",
              "value": "seed-shop-room-view"
            }
          ]
        }
      ]
    },
    {
      "id": 8,
      "name": "Exits",
      "type": "objectgroup",
      "x": 0,
      "y": 0,
      "opacity": 1,
      "visible": true,
      "draworder": "topdown",
      "objects": [
        {
          "id": 51,
          "name": "To Town",
          "type": "exit",
          "x": 304,
          "y": 416,
          "width": 32,
          "height": 16,
          "rotation": 0,
          "visible": true,
          "properties": [
            {
              "name": "exitId",
              "type": "string",
              "value": "seed-shop-exit"
            },
            {
              "name": "targetRegion",
              "type": "string",
              "value": "town"
            },
            {
              "name": "targetSpawn",
              "type": "string",
              "value": "seed-shop-door"
            }
          ]
        }
      ]
    },
    {
      "id": 9,
      "name": "Interactions",
      "type": "objectgroup",
      "x": 0,
      "y": 0,
      "opacity": 1,
      "visible": true,
      "draworder": "topdown",
      "objects": []
    },
    {
      "id": 10,
      "name": "ResourceSpawns",
      "type": "objectgroup",
      "x": 0,
      "y": 0,
      "opacity": 1,
      "visible": true,
      "draworder": "topdown",
      "objects": []
    },
    {
      "id": 11,
      "name": "NpcSpawns",
      "type": "objectgroup",
      "x": 0,
      "y": 0,
      "opacity": 1,
      "visible": true,
      "draworder": "topdown",
      "objects": [
        {
          "id": 52,
          "name": "Seed Keeper",
          "type": "npc",
          "point": true,
          "x": 320,
          "y": 312,
          "width": 0,
          "height": 0,
          "rotation": 0,
          "visible": true,
          "properties": [
            {
              "name": "entityId",
              "type": "string",
              "value": "seed-shop-keeper"
            },
            {
              "name": "npcId",
              "type": "string",
              "value": "seed-keeper"
            },
            {
              "name": "dialogueId",
              "type": "string",
              "value": "seed-keeper-welcome"
            },
            {
              "name": "interactionType",
              "type": "string",
              "value": "shop"
            }
          ]
        }
      ]
    }
  ]
}
